X:105
T:B105-  Dear Catholic Brother
Q:1/4=120
L:1/4
M:3/4
K:Am
E|AAA|AAA/2G/2|FFF|F2F|\
EEE|EAA|ADD|D2d/2e/2|\
fg/2f/2 e/2d/2|eee/2d/2|ccc|c2A|\
ddd|d2e/2d/2|cAA|A2F/2G/2|AAA|]
